X:868
T:Stratherick
R:Strathspey
B:The Athole Collection
M:C
L:1/8
K:B_
B|F<B, F>D D>CC>D|F<B, F>D F<dc<d|B<G F>D D>CC>D|
F<B, F>E D2D:|
f|d>Bf>B d>c c<f|d>Bf>B g>Bf>B|d<bf<g d<fc<d|B<G F>E D2 D>B|
d>Bf>B d>c c<f|d>Bf>B g>Bf>B|d<bf<g d<fc<d|G<BF<B D2D||

